**harm	**harte	**timestamp	**phrase	**leadinstrument	**kern
*M4/4	*M4/4	*	*	*	*
*E:	*E:	*	*	*	*E:
1r;	N	0	.	r	1r;
=1	=1	=1	=1	=1	=1
*>A_intro	*>A_intro	*>A_intro	*>A_intro	*>A_intro	*>A_intro
1vi	C#:min	0.534	newline	guitar	1C# 1e 1g#
=2	=2	=2	=2	=2	=2
1vi	C#:min	1.591	.	guitar	1C# 1e 1g#
=3	=3	=3	=3	=3	=3
1vi	C#:min	2.647	.	guitar	1C# 1e 1g#
=4	=4	=4	=4	=4	=4
1vi	C#:min	3.704	.	guitar	1C# 1e 1g#
=5	=5	=5	=5	=5	=5
1III	G#:maj	4.76	.	guitar	1G# 1b# 1dd#
=6	=6	=6	=6	=6	=6
1vi	C#:min	5.817	.	guitar	1C# 1e 1g#
=7	=7	=7	=7	=7	=7
*>B_verse	*>B_verse	*>B_verse	*>B_verse	*>B_verse	*>B_verse
1I	E:maj	6.873	newline	voice	1E 1g# 1b
=8	=8	=8	=8	=8	=8
1I	E:maj	7.937	.	voice	1E 1g# 1b
=9	=9	=9	=9	=9	=9
1vi	C#:min	9	.	voice	1C# 1e 1g#
=10	=10	=10	=10	=10	=10
1vi	C#:min	10.064	.	voice	1C# 1e 1g#
=11	=11	=11	=11	=11	=11
1vi	C#:min	11.127	.	voice	1C# 1e 1g#
=12	=12	=12	=12	=12	=12
1vi	C#:min	12.191	.	voice	1C# 1e 1g#
=13	=13	=13	=13	=13	=13
1I	E:maj	13.255	newline	voice	1E 1g# 1b
=14	=14	=14	=14	=14	=14
1I	E:maj	14.293	.	voice	1E 1g# 1b
=15	=15	=15	=15	=15	=15
1I	E:maj	15.332	.	voice	1E 1g# 1b
=16	=16	=16	=16	=16	=16
1vi	C#:min	16.371	.	voice	1C# 1e 1g#
=17	=17	=17	=17	=17	=17
1vi	C#:min	17.41	.	voice	1C# 1e 1g#
=18	=18	=18	=18	=18	=18
1vi	C#:min	18.449	.	voice	1C# 1e 1g#
=19	=19	=19	=19	=19	=19
1IV	A:maj	19.488	newline	voice	1A 1cc# 1ee
=20	=20	=20	=20	=20	=20
1IV	A:maj	20.522	.	voice	1A 1cc# 1ee
=21	=21	=21	=21	=21	=21
1I	E:maj	21.556	.	voice	1E 1g# 1b
=22	=22	=22	=22	=22	=22
1I	E:maj	22.591	.	voice	1E 1g# 1b
=23	=23	=23	=23	=23	=23
1I	E:maj	23.625	newline	voice	1E 1g# 1b
=24	=24	=24	=24	=24	=24
1I	E:maj	24.702	.	voice	1E 1g# 1b
=25	=25	=25	=25	=25	=25
1vi	C#:min	25.779	.	voice	1C# 1e 1g#
=26	=26	=26	=26	=26	=26
1vi	C#:min	26.856	.	voice	1C# 1e 1g#
=27	=27	=27	=27	=27	=27
1IV	A:maj	27.934	newline	voice	1A 1cc# 1ee
=28	=28	=28	=28	=28	=28
1I	E:maj	28.96	.	voice	1E 1g# 1b
=29	=29	=29	=29	=29	=29
1I	E:maj	29.986	.	voice	1E 1g# 1b
=30	=30	=30	=30	=30	=30
1I	E:maj	31.013	.	voice	1E 1g# 1b
=31	=31	=31	=31	=31	=31
1I	E:maj	32.039	.	voice	1E 1g# 1b
=32	=32	=32	=32	=32	=32
*>B_verse	*>B_verse	*>B_verse	*>B_verse	*>B_verse	*>B_verse
1I	E:maj	33.065	newline	voice	1E 1g# 1b
=33	=33	=33	=33	=33	=33
1I	E:maj	34.119	.	voice	1E 1g# 1b
=34	=34	=34	=34	=34	=34
1vi	C#:min	35.173	.	voice	1C# 1e 1g#
=35	=35	=35	=35	=35	=35
1vi	C#:min	36.227	.	voice	1C# 1e 1g#
=36	=36	=36	=36	=36	=36
1vi	C#:min	37.281	.	voice	1C# 1e 1g#
=37	=37	=37	=37	=37	=37
1vi	C#:min	38.335	.	voice	1C# 1e 1g#
=38	=38	=38	=38	=38	=38
1I	E:maj	39.389	newline	voice	1E 1g# 1b
=39	=39	=39	=39	=39	=39
1I	E:maj	40.43	.	voice	1E 1g# 1b
=40	=40	=40	=40	=40	=40
1I	E:maj	41.472	.	voice	1E 1g# 1b
=41	=41	=41	=41	=41	=41
1vi	C#:min	42.513	.	voice	1C# 1e 1g#
=42	=42	=42	=42	=42	=42
1vi	C#:min	43.555	.	voice	1C# 1e 1g#
=43	=43	=43	=43	=43	=43
1vi	C#:min	44.596	.	voice	1C# 1e 1g#
=44	=44	=44	=44	=44	=44
1IV	A:maj	45.638	newline	voice	1A 1cc# 1ee
=45	=45	=45	=45	=45	=45
1IV	A:maj	46.68	.	voice	1A 1cc# 1ee
=46	=46	=46	=46	=46	=46
1I	E:maj	47.722	.	voice	1E 1g# 1b
=47	=47	=47	=47	=47	=47
1I	E:maj	48.765	.	voice	1E 1g# 1b
=48	=48	=48	=48	=48	=48
1I	E:maj	49.807	newline	voice	1E 1g# 1b
=49	=49	=49	=49	=49	=49
1I	E:maj	50.84	.	voice	1E 1g# 1b
=50	=50	=50	=50	=50	=50
1vi	C#:min	51.873	.	voice	1C# 1e 1g#
=51	=51	=51	=51	=51	=51
1vi	C#:min	52.907	.	voice	1C# 1e 1g#
=52	=52	=52	=52	=52	=52
1IV	A:maj	53.94	newline	voice	1A 1cc# 1ee
=53	=53	=53	=53	=53	=53
1I	E:maj	54.986	.	voice	1E 1g# 1b
=54	=54	=54	=54	=54	=54
1I	E:maj	56.031	.	voice	1E 1g# 1b
=55	=55	=55	=55	=55	=55
1I	E:maj	57.077	.	voice	1E 1g# 1b
=56	=56	=56	=56	=56	=56
1I	E:maj	58.123	.	voice	1E 1g# 1b
=57	=57	=57	=57	=57	=57
*>B_verse	*>B_verse	*>B_verse	*>B_verse	*>B_verse	*>B_verse
1I	E:maj	59.169	newline	voice	1E 1g# 1b
=58	=58	=58	=58	=58	=58
1I	E:maj	60.19	.	voice	1E 1g# 1b
=59	=59	=59	=59	=59	=59
1vi	C#:min	61.212	.	voice	1C# 1e 1g#
=60	=60	=60	=60	=60	=60
1vi	C#:min	62.233	.	voice	1C# 1e 1g#
=61	=61	=61	=61	=61	=61
1vi	C#:min	63.254	.	voice	1C# 1e 1g#
=62	=62	=62	=62	=62	=62
1vi	C#:min	64.276	.	voice	1C# 1e 1g#
=63	=63	=63	=63	=63	=63
1I	E:maj	65.297	newline	voice	1E 1g# 1b
=64	=64	=64	=64	=64	=64
1I	E:maj	66.332	.	voice	1E 1g# 1b
=65	=65	=65	=65	=65	=65
1I	E:maj	67.368	.	voice	1E 1g# 1b
=66	=66	=66	=66	=66	=66
1vi	C#:min	68.403	.	voice	1C# 1e 1g#
=67	=67	=67	=67	=67	=67
1vi	C#:min	69.438	.	voice	1C# 1e 1g#
=68	=68	=68	=68	=68	=68
1vi	C#:min	70.473	.	voice	1C# 1e 1g#
=69	=69	=69	=69	=69	=69
1IV	A:maj	71.509	newline	voice	1A 1cc# 1ee
=70	=70	=70	=70	=70	=70
1IV	A:maj	72.535	.	voice	1A 1cc# 1ee
=71	=71	=71	=71	=71	=71
1I	E:maj	73.562	.	voice	1E 1g# 1b
=72	=72	=72	=72	=72	=72
1I	E:maj	74.589	.	voice	1E 1g# 1b
=73	=73	=73	=73	=73	=73
1I	E:maj	75.616	newline	voice	1E 1g# 1b
=74	=74	=74	=74	=74	=74
1I	E:maj	76.658	.	voice	1E 1g# 1b
=75	=75	=75	=75	=75	=75
1vi	C#:min	77.7	.	voice	1C# 1e 1g#
=76	=76	=76	=76	=76	=76
1vi	C#:min	78.742	.	voice	1C# 1e 1g#
=77	=77	=77	=77	=77	=77
1IV	A:maj	79.785	newline	voice	1A 1cc# 1ee
=78	=78	=78	=78	=78	=78
1I	E:maj	80.821	.	voice	1E 1g# 1b
=79	=79	=79	=79	=79	=79
1I	E:maj	81.858	.	voice	1E 1g# 1b
=80	=80	=80	=80	=80	=80
1I	E:maj	82.895	.	voice	1E 1g# 1b
=81	=81	=81	=81	=81	=81
1I	E:maj	83.932	.	voice	1E 1g# 1b
=82	=82	=82	=82	=82	=82
*>B_verse	*>B_verse	*>B_verse	*>B_verse	*>B_verse	*>B_verse
1I	E:maj	84.969	newline	voice	1E 1g# 1b
=83	=83	=83	=83	=83	=83
1I	E:maj	86.023	.	voice	1E 1g# 1b
=84	=84	=84	=84	=84	=84
1vi	C#:min	87.077	.	voice	1C# 1e 1g#
=85	=85	=85	=85	=85	=85
1vi	C#:min	88.131	.	voice	1C# 1e 1g#
=86	=86	=86	=86	=86	=86
1vi	C#:min	89.184	.	voice	1C# 1e 1g#
=87	=87	=87	=87	=87	=87
1vi	C#:min	90.238	.	voice	1C# 1e 1g#
=88	=88	=88	=88	=88	=88
1I	E:maj	91.292	newline	voice	1E 1g# 1b
=89	=89	=89	=89	=89	=89
1I	E:maj	92.328	.	voice	1E 1g# 1b
=90	=90	=90	=90	=90	=90
1I	E:maj	93.364	.	voice	1E 1g# 1b
=91	=91	=91	=91	=91	=91
1vi	C#:min	94.4	.	voice	1C# 1e 1g#
=92	=92	=92	=92	=92	=92
1vi	C#:min	95.437	.	voice	1C# 1e 1g#
=93	=93	=93	=93	=93	=93
1vi	C#:min	96.473	.	voice	1C# 1e 1g#
=94	=94	=94	=94	=94	=94
1IV	A:maj	97.509	newline	voice	1A 1cc# 1ee
=95	=95	=95	=95	=95	=95
1IV	A:maj	98.575	.	voice	1A 1cc# 1ee
=96	=96	=96	=96	=96	=96
1I	E:maj	99.641	.	voice	1E 1g# 1b
=97	=97	=97	=97	=97	=97
1I	E:maj	100.707	.	voice	1E 1g# 1b
=98	=98	=98	=98	=98	=98
1I	E:maj	101.773	newline	voice	1E 1g# 1b
=99	=99	=99	=99	=99	=99
1I	E:maj	102.816	.	voice	1E 1g# 1b
=100	=100	=100	=100	=100	=100
1vi	C#:min	103.859	.	voice	1C# 1e 1g#
=101	=101	=101	=101	=101	=101
1vi	C#:min	104.902	.	voice	1C# 1e 1g#
=102	=102	=102	=102	=102	=102
1IV	A:maj	105.945	newline	voice	1A 1cc# 1ee
=103	=103	=103	=103	=103	=103
1I	E:maj	106.997	.	voice	1E 1g# 1b
=104	=104	=104	=104	=104	=104
1I	E:maj	108.05	.	voice	1E 1g# 1b
=105	=105	=105	=105	=105	=105
1I	E:maj	109.102	.	voice	1E 1g# 1b
=106	=106	=106	=106	=106	=106
1I	E:maj	110.154	.	voice	1E 1g# 1b
=107	=107	=107	=107	=107	=107
*>B_verse	*>B_verse	*>B_verse	*>B_verse	*>B_verse	*>B_verse
1I	E:maj	111.206	newline	voice	1E 1g# 1b
=108	=108	=108	=108	=108	=108
1I	E:maj	112.239	.	voice	1E 1g# 1b
=109	=109	=109	=109	=109	=109
1vi	C#:min	113.273	.	voice	1C# 1e 1g#
=110	=110	=110	=110	=110	=110
1vi	C#:min	114.306	.	voice	1C# 1e 1g#
=111	=111	=111	=111	=111	=111
1vi	C#:min	115.339	.	voice	1C# 1e 1g#
=112	=112	=112	=112	=112	=112
1vi	C#:min	116.372	.	voice	1C# 1e 1g#
=113	=113	=113	=113	=113	=113
1I	E:maj	117.405	newline	voice	1E 1g# 1b
=114	=114	=114	=114	=114	=114
1I	E:maj	118.445	.	voice	1E 1g# 1b
=115	=115	=115	=115	=115	=115
1I	E:maj	119.486	.	voice	1E 1g# 1b
=116	=116	=116	=116	=116	=116
1vi	C#:min	120.527	.	voice	1C# 1e 1g#
=117	=117	=117	=117	=117	=117
1vi	C#:min	121.567	.	voice	1C# 1e 1g#
=118	=118	=118	=118	=118	=118
1vi	C#:min	122.608	.	voice	1C# 1e 1g#
=119	=119	=119	=119	=119	=119
1vi	C#:min	123.649	.	voice	1C# 1e 1g#
=120	=120	=120	=120	=120	=120
1IV	A:maj	124.689	newline	voice	1A 1cc# 1ee
=121	=121	=121	=121	=121	=121
1IV	A:maj	125.731	.	voice	1A 1cc# 1ee
=122	=122	=122	=122	=122	=122
1I	E:maj	126.772	.	voice	1E 1g# 1b
=123	=123	=123	=123	=123	=123
1I	E:maj	127.813	.	voice	1E 1g# 1b
=124	=124	=124	=124	=124	=124
1I	E:maj	128.854	newline	voice	1E 1g# 1b
=125	=125	=125	=125	=125	=125
1I	E:maj	129.903	.	voice	1E 1g# 1b
=126	=126	=126	=126	=126	=126
1vi	C#:min	130.952	.	voice	1C# 1e 1g#
=127	=127	=127	=127	=127	=127
1vi	C#:min	132.001	.	voice	1C# 1e 1g#
=128	=128	=128	=128	=128	=128
1IV	A:maj	133.05	newline	voice	1A 1cc# 1ee
=129	=129	=129	=129	=129	=129
1I	E:maj	134.101	.	voice	1E 1g# 1b
=130	=130	=130	=130	=130	=130
1I	E:maj	135.152	.	voice	1E 1g# 1b
=131	=131	=131	=131	=131	=131
1I	E:maj	136.203	.	voice	1E 1g# 1b
=132	=132	=132	=132	=132	=132
1I	E:maj	137.254	.	voice	1E 1g# 1b
=133	=133	=133	=133	=133	=133
*>B_verse	*>B_verse	*>B_verse	*>B_verse	*>B_verse	*>B_verse
1I	E:maj	138.305	newline	voice	1E 1g# 1b
=134	=134	=134	=134	=134	=134
1I	E:maj	139.344	.	voice	1E 1g# 1b
=135	=135	=135	=135	=135	=135
1vi	C#:min	140.383	.	voice	1C# 1e 1g#
=136	=136	=136	=136	=136	=136
1vi	C#:min	141.422	.	voice	1C# 1e 1g#
=137	=137	=137	=137	=137	=137
1vi	C#:min	142.461	.	voice	1C# 1e 1g#
=138	=138	=138	=138	=138	=138
1vi	C#:min	143.499	.	voice	1C# 1e 1g#
=139	=139	=139	=139	=139	=139
1I	E:maj	144.538	newline	voice	1E 1g# 1b
=140	=140	=140	=140	=140	=140
1I	E:maj	145.579	.	voice	1E 1g# 1b
=141	=141	=141	=141	=141	=141
1I	E:maj	146.621	.	voice	1E 1g# 1b
=142	=142	=142	=142	=142	=142
1vi	C#:min	147.662	.	voice	1C# 1e 1g#
=143	=143	=143	=143	=143	=143
1vi	C#:min	148.703	.	voice	1C# 1e 1g#
=144	=144	=144	=144	=144	=144
1vi	C#:min	149.744	.	voice	1C# 1e 1g#
=145	=145	=145	=145	=145	=145
1IV	A:maj	150.786	newline	voice	1A 1cc# 1ee
=146	=146	=146	=146	=146	=146
1IV	A:maj	151.833	.	voice	1A 1cc# 1ee
=147	=147	=147	=147	=147	=147
1I	E:maj	152.881	.	voice	1E 1g# 1b
=148	=148	=148	=148	=148	=148
1I	E:maj	153.928	.	voice	1E 1g# 1b
=149	=149	=149	=149	=149	=149
1I	E:maj	154.976	newline	voice	1E 1g# 1b
=150	=150	=150	=150	=150	=150
1I	E:maj	156.035	.	voice	1E 1g# 1b
=151	=151	=151	=151	=151	=151
1vi	C#:min	157.093	.	voice	1C# 1e 1g#
=152	=152	=152	=152	=152	=152
1vi	C#:min	158.152	.	voice	1C# 1e 1g#
=153	=153	=153	=153	=153	=153
1IV	A:maj	159.211	newline	voice	1A 1cc# 1ee
=154	=154	=154	=154	=154	=154
1I	E:maj	160.259	.	voice	1E 1g# 1b
=155	=155	=155	=155	=155	=155
1I	E:maj	161.308	.	voice	1E 1g# 1b
=156	=156	=156	=156	=156	=156
1I	E:maj	162.356	.	voice	1E 1g# 1b
=157	=157	=157	=157	=157	=157
1I	E:maj	163.405	.	voice	1E 1g# 1b
=158	=158	=158	=158	=158	=158
*>B_verse	*>B_verse	*>B_verse	*>B_verse	*>B_verse	*>B_verse
1I	E:maj	164.453	newline	voice	1E 1g# 1b
=159	=159	=159	=159	=159	=159
1I	E:maj	165.497	.	voice	1E 1g# 1b
=160	=160	=160	=160	=160	=160
1vi	C#:min	166.54	.	voice	1C# 1e 1g#
=161	=161	=161	=161	=161	=161
1vi	C#:min	167.583	.	voice	1C# 1e 1g#
=162	=162	=162	=162	=162	=162
1vi	C#:min	168.627	.	voice	1C# 1e 1g#
=163	=163	=163	=163	=163	=163
1vi	C#:min	169.67	.	voice	1C# 1e 1g#
=164	=164	=164	=164	=164	=164
1I	E:maj	170.713	newline	voice	1E 1g# 1b
=165	=165	=165	=165	=165	=165
1I	E:maj	171.752	.	voice	1E 1g# 1b
=166	=166	=166	=166	=166	=166
1I	E:maj	172.791	.	voice	1E 1g# 1b
=167	=167	=167	=167	=167	=167
1vi	C#:min	173.829	.	voice	1C# 1e 1g#
=168	=168	=168	=168	=168	=168
1vi	C#:min	174.868	.	voice	1C# 1e 1g#
=169	=169	=169	=169	=169	=169
1vi	C#:min	175.907	.	voice	1C# 1e 1g#
=170	=170	=170	=170	=170	=170
1IV	A:maj	176.946	newline	voice	1A 1cc# 1ee
=171	=171	=171	=171	=171	=171
1IV	A:maj	178.007	.	voice	1A 1cc# 1ee
=172	=172	=172	=172	=172	=172
1I	E:maj	179.069	.	voice	1E 1g# 1b
=173	=173	=173	=173	=173	=173
1I	E:maj	180.131	.	voice	1E 1g# 1b
=174	=174	=174	=174	=174	=174
1I	E:maj	181.192	newline	voice	1E 1g# 1b
=175	=175	=175	=175	=175	=175
1I	E:maj	182.246	.	voice	1E 1g# 1b
=176	=176	=176	=176	=176	=176
1vi	C#:min	183.3	.	voice	1C# 1e 1g#
=177	=177	=177	=177	=177	=177
1vi	C#:min	184.354	.	voice	1C# 1e 1g#
=178	=178	=178	=178	=178	=178
1IV	A:maj	185.408	newline	voice	1A 1cc# 1ee
=179	=179	=179	=179	=179	=179
1I	E:maj	186.453	.	voice	1E 1g# 1b
=180	=180	=180	=180	=180	=180
1I	E:maj	187.499	.	voice	1E 1g# 1b
=181	=181	=181	=181	=181	=181
1I	E:maj	188.545	.	voice	1E 1g# 1b
=182	=182	=182	=182	=182	=182
1I	E:maj	189.59	.	voice	1E 1g# 1b
=183	=183	=183	=183	=183	=183
*>B2_verse	*>B2_verse	*>B2_verse	*>B2_verse	*>B2_verse	*>B2_verse
1I	E:maj	190.636	newline	voice	1E 1g# 1b
=184	=184	=184	=184	=184	=184
1I	E:maj	191.69	.	voice	1E 1g# 1b
=185	=185	=185	=185	=185	=185
1vi	C#:min	192.744	.	voice	1C# 1e 1g#
=186	=186	=186	=186	=186	=186
1vi	C#:min	193.799	.	voice	1C# 1e 1g#
=187	=187	=187	=187	=187	=187
1vi	C#:min	194.853	.	voice	1C# 1e 1g#
=188	=188	=188	=188	=188	=188
1vi	C#:min	195.907	.	voice	1C# 1e 1g#
=189	=189	=189	=189	=189	=189
1I	E:maj	196.961	newline	voice	1E 1g# 1b
=190	=190	=190	=190	=190	=190
1I	E:maj	198.001	.	voice	1E 1g# 1b
=191	=191	=191	=191	=191	=191
1I	E:maj	199.042	.	voice	1E 1g# 1b
=192	=192	=192	=192	=192	=192
1vi	C#:min	200.082	.	voice	1C# 1e 1g#
=193	=193	=193	=193	=193	=193
1vi	C#:min	201.122	.	voice	1C# 1e 1g#
=194	=194	=194	=194	=194	=194
1vi	C#:min	202.163	.	voice	1C# 1e 1g#
=195	=195	=195	=195	=195	=195
1IV	A:maj	203.203	newline	voice	1A 1cc# 1ee
=196	=196	=196	=196	=196	=196
1IV	A:maj	204.253	.	voice	1A 1cc# 1ee
=197	=197	=197	=197	=197	=197
1I	E:maj	205.303	.	voice	1E 1g# 1b
=198	=198	=198	=198	=198	=198
1I	E:maj	206.353	.	voice	1E 1g# 1b
=199	=199	=199	=199	=199	=199
1I	E:maj	207.404	newline	voice	1E 1g# 1b
=200	=200	=200	=200	=200	=200
1I	E:maj	208.456	.	voice	1E 1g# 1b
=201	=201	=201	=201	=201	=201
1vi	C#:min	209.508	.	voice	1C# 1e 1g#
=202	=202	=202	=202	=202	=202
1vi	C#:min	210.56	.	voice	1C# 1e 1g#
=203	=203	=203	=203	=203	=203
1IV	A:maj	211.613	newline	voice	1A 1cc# 1ee
=204	=204	=204	=204	=204	=204
1I	E:maj	212.661	.	voice	1E 1g# 1b
=205	=205	=205	=205	=205	=205
1I	E:maj	213.709	.	voice	1E 1g# 1b
=206	=206	=206	=206	=206	=206
1I	E:maj	214.757	.	voice	1E 1g# 1b
=207	=207	=207	=207	=207	=207
1I	E:maj	215.805	.	voice	1E 1g# 1b
=208	=208	=208	=208	=208	=208
1IV	A:maj	216.852	newline	voice	1A 1cc# 1ee
=209	=209	=209	=209	=209	=209
1IV	A:maj	217.88	.	voice	1A 1cc# 1ee
=210	=210	=210	=210	=210	=210
1I	E:maj	218.908	.	voice	1E 1g# 1b
=211	=211	=211	=211	=211	=211
1I	E:maj	219.936	.	voice	1E 1g# 1b
=212	=212	=212	=212	=212	=212
1I	E:maj	220.964	newline	voice	1E 1g# 1b
=213	=213	=213	=213	=213	=213
1I	E:maj	222.022	.	voice	1E 1g# 1b
=214	=214	=214	=214	=214	=214
1vi	C#:min	223.079	.	voice	1C# 1e 1g#
=215	=215	=215	=215	=215	=215
1vi	C#:min	224.136	.	voice	1C# 1e 1g#
=216	=216	=216	=216	=216	=216
1IV	A:maj	225.194	newline	voice	1A 1cc# 1ee
=217	=217	=217	=217	=217	=217
1I	E:maj	226.235	.	voice	1E 1g# 1b
=218	=218	=218	=218	=218	=218
1I	E:maj	227.277	.	voice	1E 1g# 1b
=219	=219	=219	=219	=219	=219
1I	E:maj	228.319	.	voice	1E 1g# 1b
=220	=220	=220	=220	=220	=220
1I	E:maj	229.36	.	voice	1E 1g# 1b
=221	=221	=221	=221	=221	=221
*>_fadeout	*>_fadeout	*>_fadeout	*>_fadeout	*>_fadeout	*>_fadeout
1vi	C#:min	230.402	newline	guitar	1C# 1e 1g#
=222	=222	=222	=222	=222	=222
1vi	C#:min	231.333	.	guitar	1C# 1e 1g#
=223	=223	=223	=223	=223	=223
1vi	C#:min	232.264	.	guitar	1C# 1e 1g#
=224	=224	=224	=224	=224	=224
1vi	C#:min	233.196	.	guitar	1C# 1e 1g#
1r;	N	234.127	.	r	1r;
1r;	N	236.931	.	r	1r;
*-	*-	*-	*-	*-	*-
!!!OTL: Big Iron
!!!COC: Marty Robbins
!!!BillboardChartDate: 1960/03/21, 1960/05/09
!!!BillboardPeak: 26, 26
!!!BillboardWeeksOnChart: 10, 10
!!!SampleTargetRank: 67, 42
!!!SampleActualRank: 67, 43
!!!SampleID#: 814, 1120
!!!RDF**harmony: **recip + pitch class of root + harmonic quality
!!!RDF**harte: Chris Harte's syntax, used by MIREX
!!!RDF**phrase: newline = linebreak in original McGill transcription
!!!RDF**timestamp: McGill audio timestamp in seconds
!!!RDF**leadinstrument: original McGill primary instrumentation annotation
!!!RDT: 2017/01/12/
!!!ENC: Nathaniel Condit-Schultz
!!!EST: Awating manual error checking and editing.
